X: 40
T:Big Pats
M:4/4
L:1/8
S:Ciaran Kelly, Moneymore, Fermanagh (Accordian)
R:Reel
D:Session tape - Derrygonelly, Fermanagh 1993
Z:Bernie Stocks
K:D
DFAd fdAF | G2GF GABc | d2fd efdF | E2ED EGFE | DFAd fdAF | G2GF GABc |\
d2fd edBc |1 d2dc dAFE :|2 d2dc d2ef || gebe geef | gebe geeg | fdad fdde |\
fdad fddf | gebe geef | gebe geeg | fafd egec |1 d2dc d2ef :|2 d2dc dAFE ||
